icon-themes/breeze_svg/sc/res/na07.svg

<svg viewBox="0 0 16 16" xmlns="http://www.w3.org/2000/svg"><path d="m4 2v1h-2v3h2v4h-2v3h2v1h10v-12zm1 1h1v10h-1zm2 0h6v10h-6z" fill="#4d4d4d"/></svg>

<svg xmlns="http://www.w3.org/2000/svg" viewBox="0 0 16 16">
        <path
           style="fill:#4d4d4d"
           d="M 4 2 L 4 3 L 2 3 L 2 6 L 4 6 L 4 10 L 2 10 L 2 13 L 4 13 L 4 14 L 14 14 L 14 2 L 4 2 z M 5 3 L 6 3 L 6 13 L 5 13 L 5 3 z M 7 3 L 13 3 L 13 13 L 7 13 L 7 3 z "
		   />
</svg>
